X:1
T:Title
%%score ( 1 2 ) { 3 | ( 4 5 ) }
L:1/8
Q:1/4=108
M:4/4
K:D
V:1 treble nm="Grand Piano, Soprano"
V:2 treble 
V:3 bass nm="Choir Pad, Murfreesboro, 87.87 D"
V:4 bass 
V:5 bass 
V:1
 [DF]3 [FA] [Fd]2 [Fd]2 | [Gc]3 [Gd] [Gc]2 [GB]2 | [Fd]2 cB [FA]2 [DF]2 | [EA]3 [EG] [DF]4 | %4
w: By~Reginald~Geoffrey,~1892 * * *||||
 [DF]3 [EA] [Dd]2 [Fd]2 | [Ec]3 [Ed] [Ec]2 [DB]2 | [FA]2 [FA]2 [EA]2 [EA]2 | [EA]2 [D^G]2 [CA]4 | %8
w: ||||
 [CB]2 [CA]2 [CE]2 [CA]2 | [DB]2 [DA]2 [=F^G]2 [^FA]2 | [GB]2 [EA]2 [CE]2 [CA]2 | %11
w: |||
 [DB]2 [=F^G]2 [^FA]4 | [F^A]3 [FA] [Fd]2 [Fc]2 | [Gc]2 [GB]2 [=Fc]2 [FB]2 | %14
w: |||
 [FB]2 [^DF]2 [DA]2 [EG]2 | [CF]3 [CE] D4- | D4 z4 |] %17
w: |||
V:2
 x8 | x8 | z2 G2 z4 | x8 | x8 | x8 | x8 | x8 | x8 | x8 | x8 | x8 | x8 | x8 | x8 | x8 | x8 |] %17
V:3
 A,3 A, A,2 A,2 | B,3 B, B,2 B,2 | A,2 B,2 D2 A,2 | .C4 A,4 | A,3 A, F,2 B,2 | ^A,3 A, A,2 B,2 | %6
 =C2 C2 ^C2 C2 | B,2[K:bass] B,2 A,4 | G,2 G,2 G,2 G,2 | F,2 F,2 B,2[K:treble] D2 | C2 C2 A,2 G,2 | %11
 F,2 B,2 A,4 | E3 E[K:treble] E2 E2 | E2 D2 D2 D2 | ^D2[K:bass] B,2 =C2 B,2 | A,3 G, F,4- | %16
 F,4 z4 |] %17
V:4
 D,3 D, D,2 D,2 | D,3 D, D,2 D,2 | D,2 D,2 D,2 D,2 | A,,2 z A, D,4 | D,3 C, B,,2 D,2 | %5
 F,3 F, F,2 G,2 | ^D,2 D,2 E,2 E,2 | E,2 E,2 A,,4 | A,,2 A,,2 A,,2 A,,2 | D,2 D,2 D,2 D,2 | %10
 A,,2 A,,2 A,,2 A,,2 | D,2 D,2 D,4 | D,3 D, D,2 D,2 | G,2 G,2 ^G,2 G,2 | A,2 A,2 F,2 G,2 | %15
 A,,3 A,, D,4- | D,4 z4 |] %17
V:5
 x8 | x8 | x8 | z2 A,,2 z4 | x8 | x8 | x8 | x8 | x8 | x8 | x8 | x8 | x8 | x8 | x8 | x8 | x8 |] %17

